svgs/ticktick.svg

<?xml version="1.0" encoding="UTF-8"?>
<svg width="24px" height="24px" viewBox="0 0 24 24" version="1.1" xmlns="http://www.w3.org/2000/svg" xmlns:xlink="http://www.w3.org/1999/xlink">
    <title>Artboard Copy 82</title>
    <g id="Artboard-Copy-82" stroke="none" stroke-width="1" fill="none" fill-rule="evenodd">
        <path d="M11.5993305,2.36887578 L11.5993305,4.65127815 C9.75644724,4.65127815 7.82243342,5.40648771 6.36534805,6.72495926 C4.78619336,8.15388757 3.88305372,10.1141826 3.88305372,12.3939261 C3.88305372,14.669094 4.78725247,16.616379 6.36974854,18.0340321 C7.82666971,19.339191 9.7617178,20.0864734 11.601656,20.0864734 C13.4550462,20.0864734 15.386474,19.3537386 16.8341486,18.0657577 C18.4148615,16.6594142 19.3156073,14.7102275 19.3156073,12.3939261 L21.5980097,12.3939261 C21.5980097,15.3711938 20.4121067,17.9374521 18.3512567,19.7709685 C16.4851147,21.4312553 14.0136255,22.3688758 11.601656,22.3688758 C9.19699198,22.3688758 6.72039207,21.4124554 4.84681918,19.7340459 C2.78972708,17.8912337 1.60065135,15.3304368 1.60065135,12.3939261 C1.60065135,9.45724845 2.78498261,6.88661755 4.83395412,5.03256651 C6.7079974,3.33680262 9.18675826,2.36887578 11.5993305,2.36887578 Z M17.7564958,4.60076476 L19.7797953,6.22348563 L12.734858,15.0075087 C12.2844877,15.5690556 11.4629427,15.6563438 10.9046318,15.201968 L6.96610335,11.9966358 L8.60325627,9.98499614 L11.5286191,12.3658111 L17.7564958,4.60076476 Z" id="Combined-Shape" fill="#000000" fill-rule="nonzero"></path>
    </g>
</svg>

<svg xmlns="http://www.w3.org/2000/svg" width="24" height="24" viewBox="0 0 24 24"><path d="M11.6 2.369V4.65c-1.844 0-3.778.755-5.235 2.074-1.579 1.429-2.482 3.39-2.482 5.669 0 2.275.904 4.222 2.487 5.64 1.457 1.305 3.392 2.052 5.232 2.052 1.853 0 3.784-.732 5.232-2.02 1.58-1.407 2.482-3.356 2.482-5.672h2.282c0 2.977-1.186 5.543-3.247 7.377-1.866 1.66-4.337 2.598-6.75 2.598-2.404 0-4.88-.957-6.754-2.635C2.79 17.891 1.6 15.33 1.6 12.394c0-2.937 1.184-5.507 3.233-7.361 1.874-1.696 4.353-2.664 6.765-2.664M17.755 4.6l2.024 1.622-7.045 8.785a1.297 1.297 0 0 1-1.83.194l-3.939-3.205 1.637-2.012 2.926 2.38z"/></svg>
